; G-Code generated by Simplify3D(R) Version 2.2.2
; Dec 12, 2015 at 6:58:11 PM
; Settings Summary
;   processName,Process1
;   applyToModels,rodholder
;   profileLabel,MakerBot Replicator 2
;   printMaterial,PLA
;   printQuality,High
;   extruderName,Primary Extruder
;   extruderToolheadNumber,0
;   extruderDiameter,0.4
;   extruderAutoWidth,0
;   extruderWidth,0.4
;   extrusionMultiplier,0.9
;   extruderUseRetract,1
;   extruderRetractionDistance,1
;   extruderExtraRestartDistance,0
;   extruderRetractionZLift,0
;   extruderRetractionSpeed,1200
;   extruderUseCoasting,0
;   extruderCoastingDistance,0.2
;   extruderUseWipe,0
;   extruderWipeDistance,5
;   primaryExtruder,0
;   layerHeight,0.1
;   topSolidLayers,4
;   bottomSolidLayers,4
;   perimeterOutlines,2
;   printPerimetersInsideOut,1
;   startPointOption,2
;   startPointOriginX,0
;   startPointOriginY,0
;   startPointOriginZ,300
;   sequentialIslands,0
;   spiralVaseMode,0
;   firstLayerHeightPercentage,90
;   firstLayerWidthPercentage,100
;   firstLayerUnderspeed,0.5
;   useRaft,1
;   raftExtruder,0
;   raftLayers,2
;   raftOffset,3
;   raftSeparationDistance,0.14
;   raftInfill,80
;   disableRaftBaseLayers,0
;   useSkirt,1
;   skirtExtruder,0
;   skirtLayers,2
;   skirtOutlines,2
;   skirtOffset,4
;   infillExtruder,0
;   externalInfillPattern,Rectilinear
;   infillPercentage,20
;   outlineOverlapPercentage,20
;   infillExtrusionWidthPercentage,100
;   minInfillLength,5
;   infillLayerInterval,1
;   randomInfillStartPoint,0
;   infillAngles,45,-45
;   generateSupport,1
;   supportExtruder,0
;   supportInfill,40
;   supportExtraInflation,0
;   denseSupportLayers,0
;   denseSupportInfill,70
;   supportLayerInterval,1
;   supportHorizontalPartOffset,0.3
;   supportUpperSeparationLayers,1
;   supportLowerSeparationLayers,1
;   supportGridSpacing,4
;   maxOverhangAngle,45
;   supportAngles,0
;   temperatureName,Primary Extruder
;   temperatureNumber,0
;   temperatureSetpointCount,1
;   temperatureSetpointLayers,1
;   temperatureSetpointTemperatures,230
;   temperatureStabilizeAtStartup,0
;   temperatureHeatedBed,0
;   temperatureRelayBetweenLayers,0
;   temperatureRelayBetweenLoops,0
;   fanLayers,1,2
;   fanSpeeds,0,100
;   blipFanToFullPower,0
;   adjustSpeedForCooling,1
;   minSpeedLayerTime,15
;   minCoolingSpeedSlowdown,20
;   increaseFanForCooling,0
;   minFanLayerTime,45
;   maxCoolingFanSpeed,100
;   increaseFanForBridging,0
;   bridgingFanSpeed,100
;   use5D,1
;   relativeEdistances,1
;   allowEaxisZeroing,0
;   independentExtruderAxes,1
;   includeM10123,0
;   stickySupport,1
;   detectArcs,0
;   arcReplaceG2G3,0
;   arcRadialCompensation,1
;   gcodeXoffset,0
;   gcodeYoffset,0
;   gcodeZoffset,0
;   overrideMachineDefinition,1
;   machineTypeOverride,0
;   strokeXoverride,280
;   strokeYoverride,150
;   strokeZoverride,150
;   originOffsetXoverride,140
;   originOffsetYoverride,75
;   originOffsetZoverride,0
;   homeXdirOverride,1
;   homeYdirOverride,1
;   homeZdirOverride,-1
;   flipXoverride,1
;   flipYoverride,-1
;   flipZoverride,1
;   startingGcode,; **** Replicator 2 start.gcode ****,M73 P0 ; enable build progress,G162 X Y F3000 ; home XY maximum,G161 Z F1200 ; home Z minimum,G92 Z-5 ; set Z to -5,G1 Z0 ; move Z to 0,G161 Z F100 ; home Z slowly,M132 X Y Z A B ; recall home offsets,G1 X-145 Y-75 Z30 F9000 ; move to wait position off table,G130 X20 Y20 Z20 A20 B20 ; lower stepper Vrefs while heating,M126 S[fan_speed_pwm],M104 S[extruder0_temperature] T0,M133 T0 ; stabilize extruder temperature,G130 X127 Y127 Z40 A127 B127 ; default stepper Vrefs,G92 A0 ; zero extruder,G1 Z0.4 ; position nozzle,G1 E25 F300 ; purge nozzle,G1 X-140 Y-70 Z0.15 F1200 ; slow wipe,G1 X-135 Y-65 Z0.5 F1200 ; lift,G92 A0 ; zero extruder,M73 P1 ;@body (notify GPX body has started),; **** end of start.gcode ****
;   layerChangeGcode,
;   toolChangeGcode,
;   endingGcode,; **** Replicator 2 end.gcode ****,M73 P100 ; end build progress,G1 Z155 F1000 ; send Z axis to bottom of machine,M104 S0 T0 ; cool down extruder,M127 ; stop blower fan,G162 X Y F3000 ; home XY maximum,M18 ; disable stepper,M72 P1 ; play Ta-Da song,; **** end of end.gcode ****
;   createX3G,1
;   celebration,0
;   celebrationSong,Random Song
;   createMB5G,0
;   postProcessing,
;   defaultSpeed,4800
;   outlineUnderspeed,0.5
;   solidInfillUnderspeed,0.8
;   supportUnderspeed,0.8
;   rapidXYspeed,9000
;   rapidZspeed,1200
;   minBridgingArea,50
;   bridgingExtrusionMultiplier,1
;   bridgingSpeedMultiplier,0.8
;   filamentDiameter,1.75
;   filamentPricePerKg,46
;   useMinPrintHeight,0
;   minPrintHeight,0
;   useMaxPrintHeight,0
;   maxPrintHeight,0
;   useDiaphragm,0
;   diaphragmLayerInterval,20
;   robustSlicing,1
;   mergeAllIntoSolid,0
;   onlyRetractWhenCrossingOutline,1
;   retractBetweenLayers,1
;   useRetractionMinTravel,0
;   retractionMinTravel,3
;   useRetractionOozeRate,0
;   retractionOozeRate,100
;   onlyWipeOutlines,1
;   toolChangeRetractionDistance,12
;   toolChangeExtraRestartDistance,-0.5
;   toolChangeRetractionSpeed,600
;   allowThinWallGapFill,1
;   thinWallAllowedOverlapPercentage,10
;   horizontalSizeCompensation,0
G90
M83
; **** Replicator 2 start.gcode ****
M73 P0 ; enable build progress
G162 X Y F3000 ; home XY maximum
G161 Z F1200 ; home Z minimum
G92 Z-5 ; set Z to -5
G1 Z0 ; move Z to 0
G161 Z F100 ; home Z slowly
M132 X Y Z A B ; recall home offsets
G1 X-145 Y-75 Z30 F9000 ; move to wait position off table
G130 X20 Y20 Z20 A20 B20 ; lower stepper Vrefs while heating
M127
M104 S230 T0
M133 T0 ; stabilize extruder temperature
G130 X127 Y127 Z40 A127 B127 ; default stepper Vrefs
G92 A0 ; zero extruder
G1 Z0.4 ; position nozzle
G1 E25 F300 ; purge nozzle
G1 X-140 Y-70 Z0.15 F1200 ; slow wipe
G1 X-135 Y-65 Z0.5 F1200 ; lift
G92 A0 ; zero extruder
M73 P1 ;@body (notify GPX body has started)
; **** end of start.gcode ****
G1 E-1 F1200
G1 Z0.45 F1200
; layer 1, Z = 0.45
M135 T0
; tool H0.5 W0.4
G1 X-10.881 Y-6.05 F9000
G1 E1 F360
G1 X-10.851 Y-6.067 E0.0026 F2400
G1 X-10.851 Y-11.674 E0.4196
G1 X-10.828 Y-11.79 E0.0088
G1 X-10.174 Y-13.369 E0.1279
G1 X-10.108 Y-13.468 E0.0088
G1 X-5.97 Y-17.605 E0.4379
G1 X-5.872 Y-17.671 E0.0088
G1 X-4.293 Y-18.325 E0.1279
G1 X-4.177 Y-18.348 E0.0088
G1 X10.675 Y-18.348 E1.1114
G1 X10.791 Y-18.325 E0.0088
G1 X12.37 Y-17.671 E0.1279
G1 X12.468 Y-17.605 E0.0088
G1 X16.606 Y-13.468 E0.4379
G1 X16.672 Y-13.369 E0.0088
G1 X17.326 Y-11.79 E0.1279
G1 X17.349 Y-11.674 E0.0088
G1 X17.349 Y6.17 E1.3354
G1 X17.326 Y6.286 E0.0088
G1 X16.672 Y7.866 E0.1279
G1 X16.606 Y7.964 E0.0088
G1 X12.468 Y12.102 E0.4379
G1 X12.37 Y12.167 E0.0088
G1 X10.791 Y12.821 E0.1279
G1 X10.675 Y12.845 E0.0088
G1 X8.729 Y12.845 E0.1456
G1 X5.468 Y16.105 E0.3451
G1 X5.37 Y16.171 E0.0088
G1 X3.791 Y16.825 E0.1279
G1 X3.675 Y16.848 E0.0088
G1 X1.818 Y16.848 E0.1389
G1 X1.514 Y17.01 E0.0258
G1 X1.507 Y17.014 E0.0006
G1 X1.406 Y17.064 E0.0084
G1 X1.399 Y17.067 E0.0006
G1 X1.059 Y17.226 E0.028
G1 X1.052 Y17.229 E0.0006
G1 X0.949 Y17.274 E0.0084
G1 X0.941 Y17.277 E0.0006
G1 X0.367 Y17.509 E0.0464
G1 X0.36 Y17.512 E0.0006
G1 X0.254 Y17.551 E0.0084
G1 X0.247 Y17.554 E0.0006
G1 X-0.107 Y17.676 E0.028
G1 X-0.115 Y17.678 E0.0006
G1 X-0.222 Y17.712 E0.0084
G1 X-0.23 Y17.714 E0.0006
G1 X-1.118 Y17.969 E0.0692
G1 X-1.128 Y17.972 E0.0008
G1 X-1.274 Y18.008 E0.0112
G1 X-1.284 Y18.01 E0.0008
G1 X-1.772 Y18.114 E0.0373
G1 X-1.782 Y18.116 E0.0008
G1 X-1.93 Y18.142 E0.0112
G1 X-1.94 Y18.144 E0.0008
G1 X-2.856 Y18.272 E0.0692
G1 X-2.864 Y18.273 E0.0006
G1 X-2.976 Y18.286 E0.0084
G1 X-2.984 Y18.287 E0.0006
G1 X-3.357 Y18.319 E0.028
G1 X-3.365 Y18.32 E0.0006
G1 X-3.478 Y18.327 E0.0084
G1 X-3.485 Y18.327 E0.0006
G1 X-4.105 Y18.349 E0.0464
G1 X-4.113 Y18.349 E0.0006
G1 X-4.225 Y18.35 E0.0084
G1 X-4.233 Y18.35 E0.0006
G1 X-4.608 Y18.343 E0.028
G1 X-4.615 Y18.343 E0.0006
G1 X-4.728 Y18.338 E0.0084
G1 X-4.736 Y18.338 E0.0006
G1 X-5.658 Y18.273 E0.0692
G1 X-5.668 Y18.272 E0.0008
G1 X-5.818 Y18.257 E0.0112
G1 X-5.828 Y18.255 E0.0008
G1 X-6.322 Y18.186 E0.0374
G1 X-6.333 Y18.184 E0.0008
G1 X-6.481 Y18.158 E0.0112
G1 X-6.491 Y18.156 E0.0008
G1 X-7.458 Y17.95 E0.074
G1 X-7.468 Y17.948 E0.0008
G1 X-7.614 Y17.912 E0.0112
G1 X-7.624 Y17.909 E0.0008
G1 X-8.104 Y17.771 E0.0374
G1 X-8.114 Y17.768 E0.0008
G1 X-8.256 Y17.722 E0.0112
G1 X-8.266 Y17.718 E0.0008
G1 X-9.193 Y17.381 E0.0738
G1 X-9.203 Y17.377 E0.0008
G1 X-9.342 Y17.321 E0.0112
G1 X-9.352 Y17.317 E0.0008
G1 X-9.808 Y17.114 E0.0373
G1 X-9.817 Y17.11 E0.0008
G1 X-9.952 Y17.044 E0.0112
G1 X-9.961 Y17.039 E0.0008
G1 X-10.833 Y16.576 E0.0739
G1 X-10.842 Y16.57 E0.0008
G1 X-10.972 Y16.495 E0.0112
G1 X-10.981 Y16.49 E0.0008
G1 X-11.404 Y16.226 E0.0373
G1 X-11.413 Y16.22 E0.0008
G1 X-11.537 Y16.136 E0.0112
G1 X-11.546 Y16.13 E0.0008
G1 X-12.292 Y15.588 E0.069
G1 X-12.298 Y15.583 E0.0006
G1 X-12.387 Y15.515 E0.0084
G1 X-12.393 Y15.51 E0.0006
G1 X-12.684 Y15.275 E0.0279
G1 X-12.69 Y15.27 E0.0006
G1 X-12.775 Y15.198 E0.0084
G1 X-12.781 Y15.192 E0.0006
G1 X-13.243 Y14.776 E0.0465
G1 X-13.249 Y14.771 E0.0006
G1 X-13.331 Y14.693 E0.0085
G1 X-13.337 Y14.688 E0.0006
G1 X-13.603 Y14.421 E0.0282
G1 X-13.609 Y14.416 E0.0006
G1 X-13.687 Y14.333 E0.0085
G1 X-13.692 Y14.328 E0.0006
G1 X-14.312 Y13.639 E0.0693
G1 X-14.319 Y13.631 E0.0008
G1 X-14.415 Y13.516 E0.0112
G1 X-14.422 Y13.508 E0.0008
G1 X-14.729 Y13.115 E0.0373
G1 X-14.735 Y13.107 E0.0008
G1 X-14.823 Y12.985 E0.0112
G1 X-14.829 Y12.977 E0.0008
G1 X-15.381 Y12.159 E0.0738
G1 X-15.387 Y12.15 E0.0008
G1 X-15.466 Y12.022 E0.0112
G1 X-15.472 Y12.013 E0.0008
G1 X-15.721 Y11.581 E0.0374
G1 X-15.726 Y11.572 E0.0008
G1 X-15.797 Y11.439 E0.0112
G1 X-15.802 Y11.43 E0.0008
G1 X-16.235 Y10.541 E0.074
G1 X-16.239 Y10.532 E0.0008
G1 X-16.3 Y10.395 E0.0112
G1 X-16.305 Y10.385 E0.0008
G1 X-16.492 Y9.922 E0.0374
G1 X-16.495 Y9.912 E0.0008
G1 X-16.547 Y9.771 E0.0112
G1 X-16.55 Y9.761 E0.0008
G1 X-16.855 Y8.822 E0.0739
G1 X-16.858 Y8.812 E0.0008
G1 X-16.899 Y8.667 E0.0112
G1 X-16.902 Y8.657 E0.0008
G1 X-17.023 Y8.173 E0.0373
G1 X-17.025 Y8.163 E0.0008
G1 X-17.056 Y8.016 E0.0112
G1 X-17.058 Y8.006 E0.0008
G1 X-17.229 Y7.034 E0.0738
G1 X-17.231 Y7.024 E0.0008
G1 X-17.252 Y6.875 E0.0112
G1 X-17.253 Y6.865 E0.0008
G1 X-17.305 Y6.369 E0.0373
G1 X-17.306 Y6.359 E0.0008
G1 X-17.317 Y6.209 E0.0112
G1 X-17.317 Y6.198 E0.0008
G1 X-17.35 Y5.274 E0.0692
G1 X-17.35 Y5.266 E0.0006
G1 X-17.351 Y5.153 E0.0084
G1 X-17.351 Y5.145 E0.0006
G1 X-17.344 Y4.771 E0.0281
G1 X-17.344 Y4.763 E0.0006
G1 X-17.339 Y4.65 E0.0084
G1 X-17.339 Y4.642 E0.0006
G1 X-17.295 Y4.024 E0.0464
G1 X-17.295 Y4.016 E0.0006
G1 X-17.284 Y3.904 E0.0084
G1 X-17.283 Y3.896 E0.0006
G1 X-17.237 Y3.524 E0.0281
G1 X-17.236 Y3.516 E0.0006
G1 X-17.219 Y3.405 E0.0084
G1 X-17.218 Y3.397 E0.0006
G1 X-17.057 Y2.486 E0.0693
G1 X-17.055 Y2.475 E0.0008
G1 X-17.024 Y2.329 E0.0112
G1 X-17.022 Y2.318 E0.0008
G1 X-16.901 Y1.834 E0.0374
G1 X-16.898 Y1.824 E0.0008
G1 X-16.857 Y1.679 E0.0112
G1 X-16.853 Y1.669 E0.0008
G1 X-16.571 Y0.802 E0.0682
G1 X-16.569 Y0.795 E0.0005
G1 X-16.534 Y0.696 E0.0078
G1 X-16.532 Y0.69 E0.0005
G1 X-16.408 Y0.365 E0.026
G1 X-16.406 Y0.358 E0.0005
G1 X-16.366 Y0.261 E0.0078
G1 X-16.363 Y0.254 E0.0005
G1 X-16.263 Y0.025 E0.0187
G1 X-16.262 Y0.022 E0.0002
G1 X-16.243 Y-0.019 E0.0034
G1 X-16.242 Y-0.022 E0.0002
G1 X-16.179 Y-0.16 E0.0113
G1 X-16.177 Y-0.163 E0.0002
G1 X-16.158 Y-0.204 E0.0034
G1 X-16.156 Y-0.207 E0.0002
G1 X-15.8 Y-0.937 E0.0608
G1 X-15.795 Y-0.946 E0.0008
G1 X-15.725 Y-1.079 E0.0112
G1 X-15.72 Y-1.088 E0.0008
G1 X-15.47 Y-1.52 E0.0373
G1 X-15.465 Y-1.529 E0.0008
G1 X-15.385 Y-1.656 E0.0112
G1 X-15.379 Y-1.665 E0.0008
G1 X-14.828 Y-2.483 E0.0738
G1 X-14.822 Y-2.491 E0.0008
G1 X-14.734 Y-2.612 E0.0112
G1 X-14.727 Y-2.621 E0.0008
G1 X-14.42 Y-3.014 E0.0373
G1 X-14.413 Y-3.022 E0.0008
G1 X-14.317 Y-3.137 E0.0112
G1 X-14.31 Y-3.145 E0.0008
G1 X-13.649 Y-3.879 E0.0739
G1 X-13.642 Y-3.886 E0.0008
G1 X-13.538 Y-3.994 E0.0112
G1 X-13.531 Y-4.002 E0.0008
G1 X-13.171 Y-4.349 E0.0374
G1 X-13.164 Y-4.356 E0.0008
G1 X-13.052 Y-4.456 E0.0112
G1 X-13.044 Y-4.463 E0.0008
G1 X-12.336 Y-5.058 E0.0692
G1 X-12.33 Y-5.063 E0.0006
G1 X-12.241 Y-5.133 E0.0084
G1 X-12.235 Y-5.138 E0.0006
G1 X-11.936 Y-5.363 E0.028
G1 X-11.93 Y-5.368 E0.0006
G1 X-11.838 Y-5.433 E0.0084
G1 X-11.832 Y-5.438 E0.0006
G1 X-11.318 Y-5.784 E0.0464
G1 X-11.311 Y-5.789 E0.0006
G1 X-11.216 Y-5.849 E0.0084
G1 X-11.209 Y-5.853 E0.0006
G1 X-10.888 Y-6.046 E0.0281
G1 X-10.881 Y-6.05 E0.0006
G1 X-10.682 Y-5.704 F9000
G1 X-10.588 Y-5.757 E0.0081 F2400
G1 X-10.586 Y-5.758 E0.0002
G1 X-10.451 Y-5.829 E0.0114
G1 X-10.451 Y-11.635 E0.4344
G1 X-10.443 Y-11.673 E0.0029
G1 X-9.819 Y-13.18 E0.122
G1 X-9.797 Y-13.213 E0.0029
G1 X-5.715 Y-17.295 E0.432
G1 X-5.683 Y-17.316 E0.0029
G1 X-4.176 Y-17.94 E0.122
G1 X-4.137 Y-17.948 E0.0029
G1 X10.635 Y-17.948 E1.1055
G1 X10.674 Y-17.94 E0.0029
G1 X12.181 Y-17.316 E0.122
G1 X12.213 Y-17.295 E0.0029
G1 X16.295 Y-13.213 E0.432
G1 X16.317 Y-13.18 E0.0029
G1 X16.941 Y-11.673 E0.122
G1 X16.949 Y-11.635 E0.0029
G1 X16.949 Y6.131 E1.3295
G1 X16.941 Y6.17 E0.0029
G1 X16.317 Y7.676 E0.122
G1 X16.295 Y7.709 E0.0029
G1 X12.213 Y11.791 E0.432
G1 X12.181 Y11.813 E0.0029
G1 X10.674 Y12.437 E0.122
G1 X10.635 Y12.445 E0.0029
G1 X8.563 Y12.445 E0.1551
G1 X5.213 Y15.795 E0.3545
G1 X5.181 Y15.816 E0.0029
G1 X3.674 Y16.44 E0.122
G1 X3.635 Y16.448 E0.0029
G1 X1.718 Y16.448 E0.1435
G1 X1.328 Y16.656 E0.0331
G1 X1.326 Y16.657 E0.0002
G1 X1.23 Y16.705 E0.008
G1 X1.227 Y16.706 E0.0002
G1 X0.893 Y16.862 E0.0277
G1 X0.89 Y16.863 E0.0002
G1 X0.792 Y16.906 E0.008
G1 X0.789 Y16.907 E0.0002
G1 X0.219 Y17.137 E0.046
G1 X0.217 Y17.138 E0.0002
G1 X0.117 Y17.175 E0.008
G1 X0.114 Y17.176 E0.0002
G1 X-0.235 Y17.297 E0.0276
G1 X-0.237 Y17.297 E0.0002
G1 X-0.34 Y17.33 E0.008
G1 X-0.342 Y17.33 E0.0002
G1 X-1.225 Y17.583 E0.0687
G1 X-1.228 Y17.584 E0.0003
G1 X-1.367 Y17.619 E0.0107
G1 X-1.37 Y17.62 E0.0003
G1 X-1.852 Y17.722 E0.0368
G1 X-1.855 Y17.723 E0.0003
G1 X-1.996 Y17.747 E0.0107
G1 X-1.999 Y17.748 E0.0003
G1 X-2.909 Y17.876 E0.0688
G1 X-2.912 Y17.876 E0.0002
G1 X-3.019 Y17.888 E0.008
G1 X-3.021 Y17.889 E0.0002
G1 X-3.39 Y17.921 E0.0277
G1 X-3.392 Y17.921 E0.0002
G1 X-3.499 Y17.927 E0.008
G1 X-3.502 Y17.928 E0.0002
G1 X-4.116 Y17.949 E0.046
G1 X-4.119 Y17.949 E0.0002
G1 X-4.226 Y17.95 E0.008
G1 X-4.229 Y17.95 E0.0002
G1 X-4.598 Y17.944 E0.0276
G1 X-4.6 Y17.943 E0.0002
G1 X-4.708 Y17.939 E0.008
G1 X-4.71 Y17.939 E0.0002
G1 X-5.626 Y17.874 E0.0687
G1 X-5.63 Y17.874 E0.0003
G1 X-5.772 Y17.859 E0.0107
G1 X-5.776 Y17.859 E0.0003
G1 X-6.263 Y17.79 E0.0368
G1 X-6.267 Y17.79 E0.0003
G1 X-6.408 Y17.765 E0.0107
G1 X-6.411 Y17.764 E0.0003
G1 X-7.371 Y17.56 E0.0734
G1 X-7.374 Y17.559 E0.0003
G1 X-7.513 Y17.524 E0.0107
G1 X-7.517 Y17.524 E0.0003
G1 X-7.99 Y17.388 E0.0368
G1 X-7.993 Y17.387 E0.0003
G1 X-8.129 Y17.343 E0.0107
G1 X-8.133 Y17.341 E0.0003
G1 X-9.053 Y17.006 E0.0733
G1 X-9.057 Y17.005 E0.0003
G1 X-9.189 Y16.951 E0.0107
G1 X-9.192 Y16.95 E0.0003
G1 X-9.642 Y16.75 E0.0368
G1 X-9.645 Y16.748 E0.0003
G1 X-9.773 Y16.686 E0.0107
G1 X-9.777 Y16.684 E0.0003
G1 X-10.642 Y16.224 E0.0734
G1 X-10.645 Y16.222 E0.0003
G1 X-10.769 Y16.151 E0.0107
G1 X-10.772 Y16.149 E0.0003
G1 X-11.189 Y15.888 E0.0368
G1 X-11.192 Y15.886 E0.0003
G1 X-11.311 Y15.807 E0.0107
G1 X-11.313 Y15.805 E0.0003
G1 X-12.055 Y15.266 E0.0686
G1 X-12.057 Y15.264 E0.0002
G1 X-12.142 Y15.199 E0.008
G1 X-12.144 Y15.198 E0.0002
G1 X-12.43 Y14.966 E0.0275
G1 X-12.432 Y14.965 E0.0002
G1 X-12.513 Y14.895 E0.008
G1 X-12.515 Y14.893 E0.0002
G1 X-12.974 Y14.481 E0.0462
G1 X-12.976 Y14.479 E0.0002
G1 X-13.054 Y14.405 E0.0081
G1 X-13.056 Y14.403 E0.0002
G1 X-13.319 Y14.14 E0.0278
G1 X-13.321 Y14.138 E0.0002
G1 X-13.395 Y14.06 E0.0081
G1 X-13.397 Y14.058 E0.0002
G1 X-14.012 Y13.374 E0.0689
G1 X-14.015 Y13.371 E0.0003
G1 X-14.107 Y13.262 E0.0107
G1 X-14.109 Y13.259 E0.0003
G1 X-14.412 Y12.871 E0.0368
G1 X-14.414 Y12.869 E0.0003
G1 X-14.498 Y12.753 E0.0107
G1 X-14.5 Y12.75 E0.0003
G1 X-15.047 Y11.938 E0.0733
G1 X-15.049 Y11.935 E0.0003
G1 X-15.125 Y11.813 E0.0107
