; G-Code generated by Simplify3D(R) Version 2.2.2
; Dec 12, 2015 at 7:32:35 AM
; Settings Summary
;   processName,Process1
;   applyToModels,rodholder
;   profileLabel,MakerBot Replicator 2
;   printMaterial,PLA
;   printQuality,High
;   extruderName,Primary Extruder
;   extruderToolheadNumber,0
;   extruderDiameter,0.4
;   extruderAutoWidth,0
;   extruderWidth,0.4
;   extrusionMultiplier,0.9
;   extruderUseRetract,1
;   extruderRetractionDistance,1
;   extruderExtraRestartDistance,0
;   extruderRetractionZLift,0
;   extruderRetractionSpeed,1200
;   extruderUseCoasting,0
;   extruderCoastingDistance,0.2
;   extruderUseWipe,0
;   extruderWipeDistance,5
;   primaryExtruder,0
;   layerHeight,0.1
;   topSolidLayers,4
;   bottomSolidLayers,4
;   perimeterOutlines,2
;   printPerimetersInsideOut,1
;   startPointOption,2
;   startPointOriginX,0
;   startPointOriginY,0
;   startPointOriginZ,300
;   sequentialIslands,0
;   spiralVaseMode,0
;   firstLayerHeightPercentage,90
;   firstLayerWidthPercentage,100
;   firstLayerUnderspeed,0.5
;   useRaft,1
;   raftExtruder,0
;   raftLayers,2
;   raftOffset,3
;   raftSeparationDistance,0.14
;   raftInfill,80
;   disableRaftBaseLayers,0
;   useSkirt,1
;   skirtExtruder,0
;   skirtLayers,2
;   skirtOutlines,2
;   skirtOffset,4
;   infillExtruder,0
;   externalInfillPattern,Rectilinear
;   infillPercentage,12
;   outlineOverlapPercentage,20
;   infillExtrusionWidthPercentage,100
;   minInfillLength,5
;   infillLayerInterval,1
;   randomInfillStartPoint,0
;   infillAngles,45,-45
;   generateSupport,1
;   supportExtruder,0
;   supportInfill,40
;   supportExtraInflation,0
;   denseSupportLayers,0
;   denseSupportInfill,70
;   supportLayerInterval,1
;   supportHorizontalPartOffset,0.3
;   supportUpperSeparationLayers,1
;   supportLowerSeparationLayers,1
;   supportGridSpacing,4
;   maxOverhangAngle,45
;   supportAngles,0
;   temperatureName,Primary Extruder
;   temperatureNumber,0
;   temperatureSetpointCount,1
;   temperatureSetpointLayers,1
;   temperatureSetpointTemperatures,230
;   temperatureStabilizeAtStartup,0
;   temperatureHeatedBed,0
;   temperatureRelayBetweenLayers,0
;   temperatureRelayBetweenLoops,0
;   fanLayers,1,2
;   fanSpeeds,0,100
;   blipFanToFullPower,0
;   adjustSpeedForCooling,1
;   minSpeedLayerTime,15
;   minCoolingSpeedSlowdown,20
;   increaseFanForCooling,0
;   minFanLayerTime,45
;   maxCoolingFanSpeed,100
;   increaseFanForBridging,0
;   bridgingFanSpeed,100
;   use5D,1
;   relativeEdistances,1
;   allowEaxisZeroing,0
;   independentExtruderAxes,1
;   includeM10123,0
;   stickySupport,1
;   detectArcs,0
;   arcReplaceG2G3,0
;   arcRadialCompensation,1
;   gcodeXoffset,0
;   gcodeYoffset,0
;   gcodeZoffset,0
;   overrideMachineDefinition,1
;   machineTypeOverride,0
;   strokeXoverride,280
;   strokeYoverride,150
;   strokeZoverride,150
;   originOffsetXoverride,140
;   originOffsetYoverride,75
;   originOffsetZoverride,0
;   homeXdirOverride,1
;   homeYdirOverride,1
;   homeZdirOverride,-1
;   flipXoverride,1
;   flipYoverride,-1
;   flipZoverride,1
;   startingGcode,; **** Replicator 2 start.gcode ****,M73 P0 ; enable build progress,G162 X Y F3000 ; home XY maximum,G161 Z F1200 ; home Z minimum,G92 Z-5 ; set Z to -5,G1 Z0 ; move Z to 0,G161 Z F100 ; home Z slowly,M132 X Y Z A B ; recall home offsets,G1 X-145 Y-75 Z30 F9000 ; move to wait position off table,G130 X20 Y20 Z20 A20 B20 ; lower stepper Vrefs while heating,M126 S[fan_speed_pwm],M104 S[extruder0_temperature] T0,M133 T0 ; stabilize extruder temperature,G130 X127 Y127 Z40 A127 B127 ; default stepper Vrefs,G92 A0 ; zero extruder,G1 Z0.4 ; position nozzle,G1 E25 F300 ; purge nozzle,G1 X-140 Y-70 Z0.15 F1200 ; slow wipe,G1 X-135 Y-65 Z0.5 F1200 ; lift,G92 A0 ; zero extruder,M73 P1 ;@body (notify GPX body has started),; **** end of start.gcode ****
;   layerChangeGcode,
;   toolChangeGcode,
;   endingGcode,; **** Replicator 2 end.gcode ****,M73 P100 ; end build progress,G1 Z155 F1000 ; send Z axis to bottom of machine,M104 S0 T0 ; cool down extruder,M127 ; stop blower fan,G162 X Y F3000 ; home XY maximum,M18 ; disable stepper,M72 P1 ; play Ta-Da song,; **** end of end.gcode ****
;   createX3G,1
;   celebration,0
;   celebrationSong,Random Song
;   createMB5G,0
;   postProcessing,
;   defaultSpeed,4800
;   outlineUnderspeed,0.5
;   solidInfillUnderspeed,0.8
;   supportUnderspeed,0.8
;   rapidXYspeed,9000
;   rapidZspeed,1200
;   minBridgingArea,50
;   bridgingExtrusionMultiplier,1
;   bridgingSpeedMultiplier,0.8
;   filamentDiameter,1.75
;   filamentPricePerKg,46
;   useMinPrintHeight,0
;   minPrintHeight,0
;   useMaxPrintHeight,0
;   maxPrintHeight,0
;   useDiaphragm,0
;   diaphragmLayerInterval,20
;   robustSlicing,1
;   mergeAllIntoSolid,0
;   onlyRetractWhenCrossingOutline,1
;   retractBetweenLayers,1
;   useRetractionMinTravel,0
;   retractionMinTravel,3
;   useRetractionOozeRate,0
;   retractionOozeRate,100
;   onlyWipeOutlines,1
;   toolChangeRetractionDistance,12
;   toolChangeExtraRestartDistance,-0.5
;   toolChangeRetractionSpeed,600
;   allowThinWallGapFill,1
;   thinWallAllowedOverlapPercentage,10
;   horizontalSizeCompensation,0
G90
M83
; **** Replicator 2 start.gcode ****
M73 P0 ; enable build progress
G162 X Y F3000 ; home XY maximum
G161 Z F1200 ; home Z minimum
G92 Z-5 ; set Z to -5
G1 Z0 ; move Z to 0
G161 Z F100 ; home Z slowly
M132 X Y Z A B ; recall home offsets
G1 X-145 Y-75 Z30 F9000 ; move to wait position off table
G130 X20 Y20 Z20 A20 B20 ; lower stepper Vrefs while heating
M127
M104 S230 T0
M133 T0 ; stabilize extruder temperature
G130 X127 Y127 Z40 A127 B127 ; default stepper Vrefs
G92 A0 ; zero extruder
G1 Z0.4 ; position nozzle
G1 E25 F300 ; purge nozzle
G1 X-140 Y-70 Z0.15 F1200 ; slow wipe
G1 X-135 Y-65 Z0.5 F1200 ; lift
G92 A0 ; zero extruder
M73 P1 ;@body (notify GPX body has started)
; **** end of start.gcode ****
G1 E-1 F1200
G1 Z0.45 F1200
; layer 1, Z = 0.45
M135 T0
; tool H0.5 W0.4
G1 X-11.35 Y-5.421 F9000
G1 E1 F360
G1 X-11.35 Y-11.674 E0.468 F2400
G1 X-11.327 Y-11.79 E0.0088
G1 X-10.673 Y-13.369 E0.1279
G1 X-10.607 Y-13.468 E0.0088
G1 X-6.469 Y-17.605 E0.4379
G1 X-6.371 Y-17.671 E0.0088
G1 X-4.792 Y-18.325 E0.1279
G1 X-4.676 Y-18.348 E0.0088
G1 X10.176 Y-18.348 E1.1114
G1 X10.292 Y-18.325 E0.0088
G1 X11.871 Y-17.671 E0.1279
G1 X11.969 Y-17.605 E0.0088
G1 X16.107 Y-13.468 E0.4379
G1 X16.173 Y-13.369 E0.0088
G1 X16.827 Y-11.79 E0.1279
G1 X16.85 Y-11.674 E0.0088
G1 X16.85 Y6.174 E1.3357
G1 X16.827 Y6.29 E0.0088
G1 X16.173 Y7.869 E0.1279
G1 X16.107 Y7.968 E0.0088
G1 X11.969 Y12.105 E0.4379
G1 X11.871 Y12.171 E0.0088
G1 X10.292 Y12.825 E0.1279
G1 X10.176 Y12.848 E0.0088
G1 X8.227 Y12.848 E0.1458
G1 X4.974 Y16.104 E0.3444
G1 X4.876 Y16.17 E0.0088
G1 X3.298 Y16.824 E0.1279
G1 X3.182 Y16.848 E0.0088
G1 X2.333 Y16.848 E0.0635
G1 X2.024 Y17.009 E0.0261
G1 X2.018 Y17.012 E0.0005
G1 X1.934 Y17.054 E0.007
G1 X1.928 Y17.057 E0.0005
G1 X1.644 Y17.189 E0.0234
G1 X1.638 Y17.192 E0.0005
G1 X1.552 Y17.229 E0.007
G1 X1.546 Y17.232 E0.0005
G1 X0.976 Y17.468 E0.0462
G1 X0.97 Y17.471 E0.0005
G1 X0.882 Y17.505 E0.007
G1 X0.876 Y17.507 E0.0005
G1 X0.583 Y17.614 E0.0233
G1 X0.577 Y17.616 E0.0005
G1 X0.488 Y17.646 E0.007
G1 X0.482 Y17.648 E0.0005
G1 X-0.106 Y17.833 E0.0462
G1 X-0.113 Y17.835 E0.0005
G1 X-0.203 Y17.861 E0.007
G1 X-0.209 Y17.863 E0.0005
G1 X-0.51 Y17.944 E0.0233
G1 X-0.516 Y17.945 E0.0005
G1 X-0.607 Y17.968 E0.007
G1 X-0.614 Y17.969 E0.0005
G1 X-1.216 Y18.103 E0.0462
G1 X-1.222 Y18.104 E0.0005
G1 X-1.314 Y18.122 E0.007
G1 X-1.321 Y18.124 E0.0005
G1 X-1.628 Y18.178 E0.0233
G1 X-1.634 Y18.179 E0.0005
G1 X-1.727 Y18.193 E0.007
G1 X-1.733 Y18.194 E0.0005
G1 X-2.346 Y18.275 E0.0462
G1 X-2.352 Y18.276 E0.0005
G1 X-2.446 Y18.286 E0.007
G1 X-2.452 Y18.287 E0.0005
G1 X-2.764 Y18.314 E0.0234
G1 X-2.77 Y18.314 E0.0005
G1 X-2.864 Y18.32 E0.007
G1 X-2.871 Y18.321 E0.0005
G1 X-3.487 Y18.348 E0.0462
G1 X-3.494 Y18.348 E0.0005
G1 X-3.588 Y18.35 E0.007
G1 X-3.594 Y18.35 E0.0005
G1 X-3.906 Y18.35 E0.0233
G1 X-3.912 Y18.35 E0.0005
G1 X-4.006 Y18.348 E0.007
G1 X-4.013 Y18.348 E0.0005
G1 X-4.629 Y18.321 E0.0462
G1 X-4.636 Y18.32 E0.0005
G1 X-4.73 Y18.314 E0.007
G1 X-4.736 Y18.314 E0.0005
G1 X-5.048 Y18.287 E0.0234
G1 X-5.054 Y18.286 E0.0005
G1 X-5.148 Y18.276 E0.007
G1 X-5.154 Y18.275 E0.0005
G1 X-5.767 Y18.194 E0.0462
G1 X-5.773 Y18.193 E0.0005
G1 X-5.866 Y18.179 E0.007
G1 X-5.872 Y18.178 E0.0005
G1 X-6.179 Y18.124 E0.0233
G1 X-6.186 Y18.123 E0.0005
G1 X-6.278 Y18.104 E0.007
G1 X-6.284 Y18.103 E0.0005
G1 X-6.886 Y17.969 E0.0462
G1 X-6.893 Y17.968 E0.0005
G1 X-6.984 Y17.945 E0.007
G1 X-6.99 Y17.944 E0.0005
G1 X-7.291 Y17.863 E0.0233
G1 X-7.297 Y17.861 E0.0005
G1 X-7.387 Y17.835 E0.007
G1 X-7.393 Y17.833 E0.0005
G1 X-7.982 Y17.648 E0.0462
G1 X-7.988 Y17.646 E0.0005
G1 X-8.077 Y17.616 E0.007
G1 X-8.083 Y17.614 E0.0005
G1 X-8.376 Y17.507 E0.0233
G1 X-8.382 Y17.505 E0.0005
G1 X-8.47 Y17.471 E0.007
G1 X-8.476 Y17.468 E0.0005
G1 X-9.046 Y17.232 E0.0462
G1 X-9.052 Y17.229 E0.0005
G1 X-9.138 Y17.192 E0.007
G1 X-9.144 Y17.189 E0.0005
G1 X-9.428 Y17.057 E0.0234
G1 X-9.434 Y17.054 E0.0005
G1 X-9.518 Y17.012 E0.007
G1 X-9.524 Y17.009 E0.0005
G1 X-10.072 Y16.724 E0.0462
G1 X-10.078 Y16.721 E0.0005
G1 X-10.16 Y16.676 E0.007
G1 X-10.166 Y16.673 E0.0005
G1 X-10.436 Y16.516 E0.0234
G1 X-10.442 Y16.513 E0.0005
G1 X-10.522 Y16.464 E0.007
G1 X-10.528 Y16.461 E0.0005
G1 X-11.048 Y16.129 E0.0462
G1 X-11.053 Y16.126 E0.0005
G1 X-11.131 Y16.074 E0.007
G1 X-11.136 Y16.07 E0.0005
G1 X-11.39 Y15.892 E0.0232
G1 X-11.396 Y15.889 E0.0005
G1 X-11.471 Y15.833 E0.007
G1 X-11.476 Y15.829 E0.0005
G1 X-11.966 Y15.454 E0.0462
G1 X-11.971 Y15.45 E0.0005
G1 X-12.045 Y15.391 E0.0071
G1 X-12.05 Y15.387 E0.0005
G1 X-12.29 Y15.185 E0.0235
G1 X-12.295 Y15.181 E0.0005
G1 X-12.366 Y15.119 E0.007
G1 X-12.371 Y15.114 E0.0005
G1 X-12.826 Y14.697 E0.0462
G1 X-12.831 Y14.692 E0.0005
G1 X-12.898 Y14.628 E0.007
G1 X-12.903 Y14.623 E0.0005
G1 X-13.123 Y14.403 E0.0233
G1 X-13.128 Y14.398 E0.0005
G1 X-13.193 Y14.331 E0.007
G1 X-13.197 Y14.326 E0.0005
G1 X-13.614 Y13.87 E0.0462
G1 X-13.619 Y13.866 E0.0005
G1 X-13.681 Y13.795 E0.007
G1 X-13.685 Y13.79 E0.0005
G1 X-13.887 Y13.55 E0.0235
G1 X-13.891 Y13.545 E0.0005
G1 X-13.95 Y13.471 E0.0071
G1 X-13.954 Y13.466 E0.0005
G1 X-14.329 Y12.976 E0.0462
G1 X-14.333 Y12.971 E0.0005
G1 X-14.388 Y12.896 E0.007
G1 X-14.392 Y12.89 E0.0005
G1 X-14.57 Y12.636 E0.0232
G1 X-14.574 Y12.631 E0.0005
G1 X-14.626 Y12.553 E0.007
G1 X-14.629 Y12.548 E0.0005
G1 X-14.961 Y12.028 E0.0462
G1 X-14.964 Y12.022 E0.0005
G1 X-15.013 Y11.942 E0.007
G1 X-15.016 Y11.936 E0.0005
G1 X-15.173 Y11.665 E0.0234
G1 X-15.176 Y11.66 E0.0005
G1 X-15.221 Y11.577 E0.007
G1 X-15.224 Y11.572 E0.0005
G1 X-15.509 Y11.024 E0.0462
G1 X-15.512 Y11.018 E0.0005
G1 X-15.554 Y10.933 E0.007
G1 X-15.557 Y10.927 E0.0005
G1 X-15.689 Y10.644 E0.0234
G1 X-15.692 Y10.638 E0.0005
G1 X-15.729 Y10.552 E0.007
G1 X-15.732 Y10.546 E0.0005
G1 X-15.968 Y9.976 E0.0462
G1 X-15.971 Y9.97 E0.0005
G1 X-16.005 Y9.882 E0.007
G1 X-16.007 Y9.876 E0.0005
G1 X-16.113 Y9.583 E0.0233
G1 X-16.116 Y9.577 E0.0005
G1 X-16.146 Y9.488 E0.007
G1 X-16.148 Y9.482 E0.0005
G1 X-16.333 Y8.894 E0.0462
G1 X-16.335 Y8.887 E0.0005
G1 X-16.361 Y8.797 E0.007
G1 X-16.363 Y8.791 E0.0005
G1 X-16.444 Y8.49 E0.0233
G1 X-16.446 Y8.484 E0.0005
G1 X-16.468 Y8.393 E0.007
G1 X-16.469 Y8.386 E0.0005
G1 X-16.603 Y7.784 E0.0462
G1 X-16.604 Y7.777 E0.0005
G1 X-16.623 Y7.686 E0.007
G1 X-16.624 Y7.679 E0.0005
G1 X-16.678 Y7.372 E0.0233
G1 X-16.679 Y7.366 E0.0005
G1 X-16.693 Y7.273 E0.007
G1 X-16.694 Y7.267 E0.0005
G1 X-16.775 Y6.654 E0.0462
G1 X-16.776 Y6.648 E0.0005
G1 X-16.786 Y6.554 E0.007
G1 X-16.787 Y6.548 E0.0005
G1 X-16.814 Y6.236 E0.0234
G1 X-16.814 Y6.23 E0.0005
G1 X-16.82 Y6.136 E0.007
G1 X-16.821 Y6.129 E0.0005
G1 X-16.848 Y5.513 E0.0462
G1 X-16.848 Y5.506 E0.0005
G1 X-16.85 Y5.412 E0.007
G1 X-16.85 Y5.406 E0.0005
G1 X-16.85 Y5.094 E0.0233
G1 X-16.85 Y5.088 E0.0005
G1 X-16.848 Y4.994 E0.007
G1 X-16.848 Y4.987 E0.0005
G1 X-16.821 Y4.371 E0.0462
G1 X-16.82 Y4.364 E0.0005
G1 X-16.814 Y4.27 E0.007
G1 X-16.814 Y4.264 E0.0005
G1 X-16.787 Y3.952 E0.0234
G1 X-16.786 Y3.946 E0.0005
G1 X-16.776 Y3.852 E0.007
G1 X-16.775 Y3.846 E0.0005
G1 X-16.694 Y3.233 E0.0462
G1 X-16.693 Y3.227 E0.0005
G1 X-16.679 Y3.134 E0.007
G1 X-16.678 Y3.128 E0.0005
G1 X-16.624 Y2.821 E0.0233
G1 X-16.623 Y2.814 E0.0005
G1 X-16.604 Y2.723 E0.007
G1 X-16.603 Y2.716 E0.0005
G1 X-16.469 Y2.114 E0.0462
G1 X-16.468 Y2.107 E0.0005
G1 X-16.446 Y2.016 E0.007
G1 X-16.444 Y2.01 E0.0005
G1 X-16.363 Y1.709 E0.0233
G1 X-16.361 Y1.703 E0.0005
G1 X-16.335 Y1.613 E0.007
G1 X-16.333 Y1.606 E0.0005
G1 X-16.148 Y1.018 E0.0462
G1 X-16.146 Y1.012 E0.0005
G1 X-16.116 Y0.923 E0.007
G1 X-16.113 Y0.917 E0.0005
G1 X-16.007 Y0.624 E0.0233
G1 X-16.005 Y0.618 E0.0005
G1 X-15.971 Y0.53 E0.007
G1 X-15.968 Y0.524 E0.0005
G1 X-15.732 Y-0.046 E0.0462
G1 X-15.729 Y-0.052 E0.0005
G1 X-15.692 Y-0.138 E0.007
G1 X-15.689 Y-0.144 E0.0005
G1 X-15.557 Y-0.428 E0.0234
G1 X-15.554 Y-0.434 E0.0005
G1 X-15.512 Y-0.518 E0.007
G1 X-15.509 Y-0.524 E0.0005
G1 X-15.224 Y-1.072 E0.0462
G1 X-15.221 Y-1.077 E0.0005
G1 X-15.176 Y-1.16 E0.007
G1 X-15.173 Y-1.165 E0.0005
G1 X-15.017 Y-1.436 E0.0234
G1 X-15.013 Y-1.441 E0.0005
G1 X-14.964 Y-1.522 E0.007
G1 X-14.961 Y-1.527 E0.0005
G1 X-14.63 Y-2.047 E0.0462
G1 X-14.626 Y-2.053 E0.0005
G1 X-14.574 Y-2.131 E0.007
G1 X-14.57 Y-2.136 E0.0005
G1 X-14.392 Y-2.391 E0.0233
G1 X-14.388 Y-2.396 E0.0005
G1 X-14.333 Y-2.472 E0.007
G1 X-14.329 Y-2.477 E0.0005
G1 X-13.953 Y-2.967 E0.0462
G1 X-13.949 Y-2.972 E0.0005
G1 X-13.89 Y-3.045 E0.007
G1 X-13.886 Y-3.05 E0.0005
G1 X-13.685 Y-3.29 E0.0234
G1 X-13.681 Y-3.295 E0.0005
G1 X-13.619 Y-3.365 E0.007
G1 X-13.614 Y-3.37 E0.0005
G1 X-13.197 Y-3.826 E0.0462
G1 X-13.193 Y-3.83 E0.0005
G1 X-13.128 Y-3.898 E0.007
G1 X-13.123 Y-3.903 E0.0005
G1 X-12.903 Y-4.123 E0.0233
G1 X-12.898 Y-4.128 E0.0005
G1 X-12.831 Y-4.193 E0.007
G1 X-12.826 Y-4.197 E0.0005
G1 X-12.371 Y-4.614 E0.0462
G1 X-12.366 Y-4.619 E0.0005
G1 X-12.295 Y-4.681 E0.007
G1 X-12.29 Y-4.685 E0.0005
G1 X-12.05 Y-4.886 E0.0234
G1 X-12.045 Y-4.89 E0.0005
G1 X-11.972 Y-4.949 E0.007
G1 X-11.967 Y-4.953 E0.0005
G1 X-11.477 Y-5.329 E0.0462
G1 X-11.472 Y-5.333 E0.0005
G1 X-11.396 Y-5.388 E0.007
G1 X-11.391 Y-5.392 E0.0005
G1 X-11.35 Y-5.421 E0.0037
G1 X-11.234 Y-5.011 F9000
G1 X-11.162 Y-5.064 E0.0067 F2400
G1 X-11.16 Y-5.065 E0.0002
G1 X-10.95 Y-5.212 E0.0192
G1 X-10.95 Y-11.635 E0.4806
G1 X-10.942 Y-11.673 E0.0029
G1 X-10.318 Y-13.18 E0.122
G1 X-10.296 Y-13.213 E0.0029
G1 X-6.214 Y-17.295 E0.432
G1 X-6.182 Y-17.317 E0.0029
G1 X-4.675 Y-17.941 E0.122
G1 X-4.636 Y-17.948 E0.0029
G1 X10.136 Y-17.948 E1.1055
G1 X10.175 Y-17.941 E0.0029
G1 X11.682 Y-17.317 E0.122
G1 X11.714 Y-17.295 E0.0029
G1 X15.796 Y-13.213 E0.432
G1 X15.818 Y-13.18 E0.0029
G1 X16.442 Y-11.673 E0.122
G1 X16.45 Y-11.635 E0.0029
G1 X16.45 Y6.135 E1.3298
G1 X16.442 Y6.173 E0.0029
G1 X15.818 Y7.68 E0.122
G1 X15.796 Y7.713 E0.0029
G1 X11.714 Y11.795 E0.432
G1 X11.682 Y11.817 E0.0029
G1 X10.175 Y12.441 E0.122
G1 X10.136 Y12.448 E0.0029
G1 X8.061 Y12.448 E0.1553
G1 X4.719 Y15.793 E0.3539
G1 X4.686 Y15.815 E0.0029
G1 X3.181 Y16.44 E0.122
G1 X3.142 Y16.448 E0.0029
G1 X2.235 Y16.448 E0.0679
G1 X1.841 Y16.654 E0.0333
G1 X1.839 Y16.655 E0.0002
G1 X1.759 Y16.694 E0.0067
G1 X1.757 Y16.695 E0.0002
G1 X1.477 Y16.825 E0.0231
G1 X1.475 Y16.826 E0.0002
G1 X1.393 Y16.862 E0.0067
G1 X1.391 Y16.863 E0.0002
G1 X0.825 Y17.098 E0.0459
G1 X0.823 Y17.099 E0.0002
G1 X0.739 Y17.131 E0.0067
G1 X0.737 Y17.132 E0.0002
G1 X0.448 Y17.237 E0.023
G1 X0.446 Y17.238 E0.0002
G1 X0.362 Y17.266 E0.0067
G1 X0.36 Y17.267 E0.0002
G1 X-0.225 Y17.451 E0.0458
G1 X-0.227 Y17.452 E0.0002
G1 X-0.312 Y17.477 E0.0067
G1 X-0.315 Y17.477 E0.0002
G1 X-0.611 Y17.557 E0.023
G1 X-0.613 Y17.557 E0.0002
G1 X-0.7 Y17.579 E0.0067
G1 X-0.702 Y17.579 E0.0002
G1 X-1.3 Y17.712 E0.0459
G1 X-1.303 Y17.712 E0.0002
G1 X-1.39 Y17.73 E0.0067
G1 X-1.392 Y17.73 E0.0002
G1 X-1.695 Y17.784 E0.023
G1 X-1.697 Y17.784 E0.0002
G1 X-1.786 Y17.798 E0.0067
